X:1
T:4 Gesänge, Op.46
T:Die Schale der Vergessenheit
T:3. Die Schale der Vergessenheit
T:Johannes Brahms
T:Ludwig Christoph Heinrich Hölty
T:4 Gesänge, Op.46
T:OpenScore (CC0)
T:OpenScore (CC0)
T:OpenScore (CC0)
T:OpenScore (CC0)
C:Johannes Brahms
Z:Ludwig Christoph Heinrich Hölty
Z:OpenScore (CC0)
%%score 1 { ( 2 5 ) | ( 3 4 ) }
L:1/8
Q:1/4=118
M:3/4
K:E
V:1 treble nm="Voice"
V:2 treble nm="Piano"
V:5 treble 
V:3 bass 
V:4 bass 
V:1
"^Lebhaft, doch nicht zu rasch" c4 c2 | c4 B A | c4 c2- | c2 B2 A2 | e4 d2 | e2 E2 F2 | =G2 F2 E2 | %7
w: Ei- ne|Scha- le des|Stroms, wel-|* cher Ver-|ges- sen-|heit durch E-|ly- si- ums|
 ^c4 ^A2 | B4 z2 | z6 | e4 G2 | G3 F F2 | e4 G2- | G2 ^A2 c2 | B4 ^A2 | G2 z2 ^e2- | e4 G2- | %17
w: Blu- men|rollt,||bring, o|Ge- ni- us,|bring dei-|* nem Ver-|schmach- ten-|den, bring|_ dei-|
 G2 ^^F2 =e2 | (d4 c2- | c2 B2) ^A2 | G4 z2 | z6 ||[K:Ab][Q:1/4=122]"^Poco animato" B4 B2 | %23
w: * nem Ver-|schmach- *|* * ten-|den!||Dort, wo|
 d2 c2 B2 | c4 A2 | B4 z2 | c4 c2 | e2 d2 c2 | d4 c2- | c2 B2 F2 | A4 G2 | G4 z2 | e6 | G6 | e6 | %35
w: Pha- on die|Sän- ge-|rin,|dort, wo|Or- pheus ver-|gass sei-|* ner Eu-|ry- di-|ce,|schöpf|den|sil-|
 F4 c2 | (B4 A2- | A2 G2) F2 | E4 z2 | z6 ||[K:E] c4 c2 | c4 B ^A | c4 c2- | c2 B2 ^A2 | e4 d2 | %45
w: ber- nen|Schlum- *|* * mer-|quell!||Ha! dann|tauch ich dein|Bild, sprö-|* de Ge-|bie- te-|
 e2 E2 F2 | =G2 F2 E2 | ^c4 ^A2 | z2 z2 B2 | e4 d2 | A2 =G2 z2 | z2 z2 E2 | ^c3 z ^A2- | A2 B2 e2 | %54
w: rin, und die|lä- cheln- de|Lip- pe|voll|Lau- ten-|klan- ges,|des|Haars schat-|* ti- ge|
 d4 =A2 | G2 z2[Q:1/4=123] z2 | z2[Q:1/4=124] c2 B2 |[Q:1/4=125] B6 |[Q:1/4=126] ^A2 z2 c2 | %59
w: Wal- lun-|gen,|und das|Be-|ben der|
[Q:1/4=127] e4 =G2 |[Q:1/4=130] F2 z2 z2 |[Q:1/4=133] c4 c2 | c4 B ^A | e4 e2- | e2 ^d2 c2 | %65
w: wei- ssen|Brust,|und den|sie- gen- den|Blick, der|_ mir im|
 g4 f2 | f3 z z2 | e6 | G6 | e6 | F4 c2 | (B4 A2- | A2 G2) F2 | E4 c2- | c4 E2 | E6 | %76
w: Mar- ke|zuckt,|tauch|ich|tief|in den|Schlum- *|* * mer-|quell, tauch|* ich|tief|
[Q:1/4=127] D4 c2 |[Q:1/4=124] (B4 A2- |[Q:1/4=122] A2 G2) F2 |[Q:1/4=118] E4 z2[Q:1/4=115] | %80
w: in den|Schlum- *|* * mer-|quell.|
[Q:1/4=113] z6[Q:1/4=110] |[Q:1/4=108] z6[Q:1/4=105] |[Q:1/4=100] z6[Q:1/4=95] | !fermata!z6 |] %84
w: ||||
V:2
!f! (3z!>(! ([FAc]C (3[FAc]C[FAc])!>)! z2 | (3z!>(! ([FAc]C (3[FAc]C[FAc])!>)! z2 | %2
 (3z!>(! ([Acf]F (3[Acf]F[Acf])!>)! z2 | (3z!>(! ([Acf]F (3[Acf]F[Acf])!>)! z2 | %4
 (3z!>(! ([efa]A (3[efa]A[efa] (3A!>)![dfa]A) | z ([e=g]=GeE=c | =C=G^A,E=G,A,) | z (^A^A,=GA,^C) | %8
!>(! z (BB,FB,D) | z (dDBDF)!>)! |!>(! z (eEBEG)!>)! |!>(! z (eEcEF)!>)! | z (eEBEG) | z (cE^AEG | %14
 DGBC^^F^A) |!>(! ([B,^^C]G[B,D]G[B,^E]G)!>)! |!>(! ([B,^^C]G[B,D]G[B,^E]G)!>)! | %17
!>(! ([^A,C]G[A,D]^^F[A,E]F)!>)! | (G,DB!>(!G,CG | B,DG^A,C^^F)!>)! |!p! z ([EG]2 D) z2 | %21
 z (E2 D) z2 ||[K:Ab] z ([B,D_F]2 E) z2 | z ([B,D=F]2 E) z2 | z ([CA]2 E) z2 | z ([B,GB]2 E) z2 | %26
 z ([CE_G]2 F) z2 | z ([CE_G]2 F) z2 | z ([DB]2 F) z2 | z ([FA]2 B,) z2 | z ([CA]2 E) z2 | %31
 z ([B,G]2 E) z2 | z (eEBEG) | z (eEcEG) | z (eEBEG) | z (cCFCE) | z (B!>(!CEAA,) | %37
 (B,EGA,=D!>)!F) |!p! z!>(! [B,E]3 z2 | z!>)! [B,E]3 z2 || %40
[K:E]!f! (3z!>(! ([^Ace]E (3[Acd]D!>)![Acd]) z2 | (3z!>(! ([^Ace]E (3[Acd]D[Acd])!>)! z2 | %42
 (3z!>(! ([cg]G (3[c^^f]^^F[cf])!>)! z2 | (3z!>(! ([cg]A (3[c^^f]^^F[cf])!>)! z2 | %44
 (3z ([e^a]^A (3[eb]B[eb] (3=A[d=a]A) | z ([e=g]=GeE=c |!>(! =C=G^A,E=G,A,) | z B!>)!B,^GB,E | %48
!p! z (gGeGB) | z (aAfAd) | z2!>(! (E2 F2 | =G2 F2!>)! E2) | z ^G^G,EG,B, | z (gAeGB) | z (aAfAd) | %55
!p! z2 (G2 ^A2 | B2 =A2 G2) |!mp! z2 (c2 ^d2 |!mp! e2 d2 c2) |!mf! z2 (c2 ^d2 |!mf! e2 d2 c2) | %61
 (3z!>(! ([ce^g]G (3[cef]F[cef]!>)!"_cresc." (3F[cef]F) | (3z ([ceg]G (3[cef]F[cef] (3F[cef]F) | %63
 (3z!>(! ([eb]B (3[e^a]^A[ea]!>)! (3A[ea]A) | (3z!>(! ([eb]B (3[e^a]^A[ea]!>)! (3A[ea]A) | %65
!f! (3z [gc']c (3[gc']c[gc'] (3c[fc']c | (3z [fb]B (3[fb]B[fb] (3B[eb]B | %67
!>(! (3z (gG (3eEB (3EGE)!>)! |!>(! (3z (gG (3eEc!>)! (3EGE) |!>(! (3z (gG (3eEB!>)! (3EGE) | %70
 (3z (fF (3eEc (3DFD) | (3BB,!<(!E (3CBE (3A,AE!<)! |!>(! (3CAE (3B,GE!>)! (3A,FD | %73
!>(! (3(=G,E^A, (3G,EB, (3G,!>)!EC) | (3(=G,E^A, (3G,EB, (3G,EC) | (3(F,E=A, (3F,EB, (3F,E=C) | %76
 (3(F,DA, (3F,DB, (3F,D^C) | (3C!<(!BE (3CBE (3CAE!<)! |!>(! (3A,AE (3B,GE (3A,!>)!FD | %79
!f! (3z (GE (3z GE (3GEG) | (3z (EB, (3z EB, (3EB,E) | %81
 (3z[I:staff +1] B,G,[I:staff -1] (3z[I:staff +1] B,G,[I:staff -1] (3z[I:staff +1] B,G, | %82
[I:staff -1] (3z[I:staff +1] (B,G, (3B,G,B,[I:staff -1] (3EGB) | !fermata![EGBe]6 |] %84
V:3
 (E,2 D,2) z2 | (E,2 D,2) z2 | (E,2 D,2) z2 | (E,2 D,2) z2 | (C,2 B,,2) z2 | =C,,6- | C,,6 | %7
 (E,,=G,,E,) z z2 | (B,,,B,,D,F,) z2 | (A,,B,,D,F,) z2 | (G,,E,G,) z z2 | ((A,,E,A,)) z z2 | %12
 (B,,E,B,) z z2 | (C,E,C) z z2 | D,4 D,,2 | ([^E,,^E,]2 [D,,D,]2 [^^C,,^^C,]2) | %16
 ([^E,,^E,]2 [D,,D,]2 [^^C,,^^C,]2) | ([=E,,=E,]2 [D,,D,]2 [C,,C,]2) | %18
 ([B,,,B,,]2 [C,,C,]2 [E,,E,]2) | [D,,D,]4 D,,2 | [G,,B,,]3 z z2 | [G,,B,,]3 z z2 || %22
[K:Ab] [G,,B,,]3 z z2 | [G,,B,,]3 z z2 | (A,2 E,) z z2 | (E,,2 G,) z z2 | (_G,2 F,) z z2 | %27
 (_G,2 F,) z z2 | (B,2 F,) z z2 | (=D,,2 F,) z z2 | (E,,2 E,) z z2 | (E,,2 E,) z z2 | %32
 (G,,E,G,) z z2 | (C,E,G,) z z2 | (B,,E,G,) z z2 | (A,,E,F,) z z2 | (G,,2 A,,2 C,2) | %37
 (B,,4 B,,,2) | (E,,2 E,) z z2 | (E,,2 E,) z z2 ||[K:E] [^A,C]4"^animato" z2 | [^A,C]4 z2 | %42
 [^A,C]4 z2 | [^A,C]4 z2 | (=G,2 ^G,2) [F,B,]2 | (=C,,6 | =C,6) | (B,,,B,,E,) z z2 | %48
 (B,,E,G,) z z2 | (B,,F,B,) z z2 | (=C,,6 | =C,6) | B,,,B,,E, z z2 | (B,,E,G,) z z2 | %54
 (^B,,F,^B,) z z2 | ([=D,,=D,]6 | [C,,C,]2) z2 z2 | ([=G,,=G,]6 | [F,,F,]2) z2 z2 | ([B,,B,]6 | %60
 [^A,,^A,]2) z2 z2 |!f! [CE]4 z2 | [CE]4 z2 | [CE]4 z2 | [CE]4 z2 | [^A,C]6 | [G,B,]6 | %67
 (B,,E,G,B,) z2 | (C,E,G,^A,) z2 | (B,,E,G,B,) z2 | (^A,,E,F,^A,) (=A,,=A,) | %71
 ([G,,,G,,]2 [A,,,A,,]2 [C,,C,]2) | [B,,,B,,]6 | ([C,,C,]2 [B,,,B,,]2 [^A,,,^A,,]2) | %74
 ([C,,C,]2 [B,,,B,,]2 [^A,,,^A,,]2) | ([=C,,=C,]2 [B,,,B,,]2"^poco sostenuto" [A,,,A,,]2) | %76
 ([=C,,=C,]2 [B,,,B,,]2 [A,,,A,,]2) | ([G,,,G,,]2 [A,,,A,,]4) | ([C,,C,]2 [B,,,B,,]4) | %79
 [E,,,E,,]6 | [E,,,E,,]6 | [E,,,E,,]6 | [E,,,E,,]6 | !fermata![E,,,E,,]6 |] %84
V:4
 [F,A,]4 x2 | [F,A,]4 x2 | [F,A,C]4 x2 | [F,A,C]4 x2 | [F,A,]4 x2 | x6 | x6 | x6 | x6 | x6 | x6 | %11
 x6 | x6 | x6 | x6 | x6 | x6 | x6 | x6 | x6 | (E,2 D,) x x2 | (E,2 D,) x x2 || %22
[K:Ab] (_F,2 E,) x x2 | (=F,2 E,) x x2 | [A,,C,]3 x x2 | x6 | [=A,,C,]3 x x2 | [=A,,C,]3 x x2 | %28
 [B,,D,]3 x x2 | x6 | x6 | x6 | x6 | x6 | x6 | x6 | x6 | x6 | x6 | x6 ||[K:E] (G,2 ^^F,2) x2 | %41
 (G,2 ^^F,2) x2 | (E,2 ^D,2) x2 | (E,2 ^D,2) x2 | (C,2 B,,4) | x6 | x6 | x6 | x6 | x6 | x6 | x6 | %52
 x6 | x6 | x6 | x6 | x6 | x6 | x6 | x6 | x6 | (B,2 ^A,2) x2 | (B,2 ^A,2) x2 | (G,2 F,2) z2 | %64
 (G,2 F,2) z2 | (E,2 D,4) | (D,2 C,4) | x6 | x6 | x6 | x6 | x6 | x6 | x6 | x6 | x6 | x6 | x6 | x6 | %79
 x6 | x6 | F,2 E,2 C,2 | B,,4 G,,2 | x6 |] %84
V:5
 x6 | x6 | x6 | x6 | x6 | x6 | x6 | x6 | x6 | x6 | x6 | x6 | x6 | x6 | x6 | x6 | x6 | x6 | x6 | %19
 x6 | x B,3 x2 | x B,3 x2 ||[K:Ab] x6 | x6 | x6 | x6 | x6 | x6 | x6 | x6 | x6 | x6 | x6 | x6 | x6 | %35
 x6 | x6 | x6 | x (A,2 G,) x2 | x (A,2 G,) x2 ||[K:E] x6 | x6 | x6 | x6 | x6 | x6 | x6 | x6 | x6 | %49
 x6 | x2 E[=G,^A,]F[=G,^A,] | %51
 =G[I:staff +1][=G,^A,][I:staff -1]F[I:staff +1][=G,^A,][I:staff -1]E[I:staff +1][=G,^A,] | x6 | %53
 x6 | x6 |[I:staff -1] z!>(!"_cresc." =B,FB,FB,!>)! | ^EB,EB,EB, | z!>(! =EBEBE!>)! | ^AEAEAE | %59
 z!>(! E=GEGE!>)! | FEFEFE | x6 | x6 | x6 | x6 | x6 | x6 | x6 | x6 | x6 | x6 | x6 | x6 | x6 | x6 | %75
 x6 | x6 | x6 | x6 | (C2 B,2) z2 | (A,2 G,2) z2 | x6 | x6 | x6 |] %84

